X:1
T:A. H. Dyke Troyte
T:Brideshead
%%score { ( 1 2 ) | ( 3 4 ) }
L:1/8
Q:1/4=184
M:4/2
K:F
V:1 treble 
V:2 treble 
V:3 bass 
V:4 bass 
V:1
"^Presto" F4 | F4 G4 A4 F4 | B4 A4 G4 G4 | A4 c4 B4 A4 | G4 F4 E4 F4 | F4 F4 F4 E4 | F12 F4 | %7
 F4 G4 A4 F4 | B4 A4 G4 G4 | A4 c4 B4 A4 | G4 F4 E4 F4 | F4 F4 F4 E4 | F12 | F8 F8 |] %14
V:2
 C4 | D4 E4 F4 F4 | F4 F4 E4 E4 | F4 G4 F4 E4 | D4 (A,2 B,2) C4 C4 | D4 D4 C6 B,2 | A,12 C4 | %7
 D4 E4 F4 F4 | F4 F4 E4 E4 | F4 G4 F4 E4 | D4 (A,2 B,2) C4 C4 | D4 D4 C6 B,2 | A,12 | D8 C8 |] %14
V:3
 A,4 | A,4 C4 C4 D4 | D4 C4 C4 C4 | C4 C4 D4 A,4 | B,4 F,4 G,4 A,4 | A,4 B,4 A,4 G,4 | F,12 A,4 | %7
 A,4 C4 C4 D4 | D4 C4 C4 C4 | C4 C4 D4 A,4 | B,4 F,4 G,4 A,4 | A,4 B,4 A,4 G,4 | A,12 | B,8 A,8 |] %14
V:4
 F,4 | D,4 C,4 F,4 D,4 | B,,4 F,4 C,4 C,4 | F,4 E,4 D,4 C,4 | B,,4 D,4 C,4 F,4 | D,4 B,,4 C,4 C,4 | %6
 F,12 F,4 | D,4 C,4 F,4 D,4 | B,,4 F,4 C,4 C,4 | F,4 E,4 D,4 C,4 | B,,4 D,4 C,4 F,4 | %11
 D,4 B,,4 C,4 C,4 | F,12 | B,,8 F,8 |] %14

